X: 7351
T: Cliffs Of Moher, The
R: jig
M: 6/8
K: Edorian
|:A|Bcd e2d|Bee dBA|FDD ADD|FDF AFA|
Bcd e2d|Bee dBA|FDD ADD|FED E2:|
A|~B3 AFA|BdB AFE|FDD A,DD|FDF AFA|
~B3 AFA|BdB AFE|DEF AFD|B,CD E2A|
~B3 AFA|BdB AFE|FDD A,DD|FDF AFA|
~B3 AFA|BdB AFE|DEF AFD|B,CD E2||

